X: 412
T:Se congie prens
N: Derived from Jos3011-Se_congie_prens.krn
C: Josquin des Prez
%%abc-version 2.0
%%abcx-abcm2ps-target-version 5.9.1 (29 Sep 2008)
%%abc-creator hum2abc beta
%%abcx-conversion-date 2019/02/12 16:15:55
%%abc-edited-by Jesse Rodin
%%abc-edited-by Will Watson 09/09/2011
%%abcx-initial-encoding-date 2011/09/09/
%%humdrum-veritas 1359500847
%%humdrum-veritas-data 4021463892
%%linebreak <none>
%%barnumbers 0
L: 1/4
M: 2/1
Q: 1/2=120
V: 1 clef=treble
V: 2 clef=treble-8
V: 3 clef=treble-8
V: 4 clef=treble-8
V: 5 clef=treble-8
V: 6 clef=bass
K: F
[V:1] z8 | 
[V:2] z8 | 
[V:3] g8 | 
[V:4] z8 | 
[V:5] z8 | 
[V:6] z4G,4 | 
[V:1] z8 | 
[V:2] z8 | 
[V:3] f4f4 | 
[V:4] z8 | 
[V:5] z8 | 
[V:6] B,4A,4 | 
[V:1] G8 | 
[V:2] z8 | 
[V:3] g2G2B3c | 
[V:4] z8 | 
[V:5] z4G4 | 
[V:6] G,8 | 
[V:1] F4F4 | 
[V:2] z8 | 
[V:3] d2B2c3d | 
[V:4] z8 | 
[V:5] B4A4 | 
[V:6] z8 | 
[V:1] G8 | 
[V:2] z8 | 
[V:3] _e2d2_e2d2- | 
[V:4] G8 | 
[V:5] G8 | 
[V:6] z4G,,4 | 
[V:1] z4A4 | 
[V:2] z8 | 
[V:3] dcdBc4 | 
[V:4] F4F4 | 
[V:5] z8 | 
[V:6] B,,4A,,4 | 
[V:1] B6B2 | 
[V:2] d8 | 
[V:3] B4z2G2 | 
[V:4] G8 | 
[V:5] z4D4 | 
[V:6] G,,8 | 
[V:1] A4G4 | 
[V:2] c4c4 | 
[V:3] A2F2G4 | 
[V:4] z8 | 
[V:5] F4E4 | 
[V:6] z8 | 
[V:1] F2A3GFE | 
[V:2] d8 | 
[V:3] A4D4 | 
[V:4] z4A4 | 
[V:5] D8 | 
[V:6] z4F,4 | 
[V:1] D8 | 
[V:2] z8 | 
[V:3] z2d2d2d2 | 
[V:4] B6B2 | 
[V:5] z8 | 
[V:6] G,6D,2 | 
[V:1] z8 | 
[V:2] z4e4 | 
[V:3] cAc3BG2 | 
[V:4] A4G4 | 
[V:5] z4c4 | 
[V:6] F,4E,4 | 
[V:1] z4A4 | 
[V:2] f6f2 | 
[V:3] A2D2F3E | 
[V:4] F8 | 
[V:5] d6A2 | 
[V:6] D,8 | 
[V:1] G3AB2F2 | 
[V:2] e4d4 | 
[V:3] CDEFG2DE | 
[V:4] z8 | 
[V:5] c4B4 | 
[V:6] z8 | 
[V:1] A3GE4 | 
[V:2] c8 | 
[V:3] FGABcdec | 
[V:4] z8 | 
[V:5] A8 | 
[V:6] z8 | 
[V:1] D4z4 | 
[V:2] z8 | 
[V:3] d2G2B3c | 
[V:4] B8 | 
[V:5] z8 | 
[V:6] z4G,,4 | 
[V:1] D4F4- | 
[V:2] z8 | 
[V:3] d4z4 | 
[V:4] B4B4 | 
[V:5] z8 | 
[V:6] B,,6C,2 | 
[V:1] F2G2A4 | 
[V:2] f8 | 
[V:3] D4F4- | 
[V:4] A6G2 | 
[V:5] z4F4 | 
[V:6] D,8 | 
[V:1] z4z2D2 | 
[V:2] f4f4 | 
[V:3] F2G2A2F2 | 
[V:4] F8 | 
[V:5] A6B2 | 
[V:6] z4D,4 | 
[V:1] E4G4 | 
[V:2] e6d2 | 
[V:3] G2CDEFGE | 
[V:4] z4G4 | 
[V:5] c8 | 
[V:6] C,4C,4 | 
[V:1] F3EF2G2- | 
[V:2] c8 | 
[V:3] FGABcde2- | 
[V:4] A6G2 | 
[V:5] z8 | 
[V:6] F,6E,2 | 
[V:1] GFGEF4 | 
[V:2] z4d4 | 
[V:3] edc3=B=BA | 
[V:4] G4F4 | 
[V:5] z8 | 
[V:6] C,2E,2D,4 | 
[V:1] E2G3AB2- | 
[V:2] e6d2 | 
[V:3] (3c2G2c2(3B3cd2 | 
[V:4] G8 | 
[V:5] z2CDEFG2- | 
[V:6] C,D,E,F,G,2G,,2 | 
[V:1] BAF2G4 | 
[V:2] d4c4 | 
[V:3] (3G2B2A2(3G2E2C2 | 
[V:4] z4G4 | 
[V:5] GFD2E4 | 
[V:6] z8 | 
[V:1] F4z4 | 
[V:2] d8 | 
[V:3] (3F3GA2D2d2 | 
[V:4] A6G2 | 
[V:5] D3EF2G2 | 
[V:6] z2D,2D,2G,,2 | 
[V:1] z8 | 
[V:2] z4d4 | 
[V:3] e2c3=B=BA | 
[V:4] G4F4 | 
[V:5] C4z4 | 
[V:6] C,2E,2D,4 | 
[V:1] z8 | 
[V:2] e6d2 | 
[V:3] c3BGABc | 
[V:4] G8 | 
[V:5] z2CDEFGA | 
[V:6] C,D,E,F,G,2G,,2 | 
[V:1] z4z2A2 | 
[V:2] d4c4 | 
[V:3] dGg3^f^fe | 
[V:4] z8 | 
[V:5] B2G2A4 | 
[V:6] z8 | 
[V:1] B2G4FE | 
[V:2] d8 | 
[V:3] g4z2d2 | 
[V:4] G8 | 
[V:5] G8 | 
[V:6] z4G,,4 | 
[V:1] D4z2A2 | 
[V:2] z8 | 
[V:3] d3Bc4 | 
[V:4] F4F4 | 
[V:5] z8 | 
[V:6] B,,4A,,4 | 
[V:1] B6B2 | 
[V:2] d8 | 
[V:3] B6G2 | 
[V:4] G8 | 
[V:5] z4D4 | 
[V:6] G,,8 | 
[V:1] A4G4 | 
[V:2] c4c4 | 
[V:3] A2F2G4 | 
[V:4] z8 | 
[V:5] F4E4 | 
[V:6] z8 | 
[V:1] F2A3GFE | 
[V:2] d8 | 
[V:3] A4D4 | 
[V:4] z4A4 | 
[V:5] D8 | 
[V:6] z4F,4 | 
[V:1] D8 | 
[V:2] z8 | 
[V:3] z2d2d2d2 | 
[V:4] B6B2 | 
[V:5] z8 | 
[V:6] G,6D,2 | 
[V:1] z8 | 
[V:2] z4e4 | 
[V:3] cAc3BG2 | 
[V:4] A4G4 | 
[V:5] z4c4 | 
[V:6] F,4E,4 | 
[V:1] z4A4 | 
[V:2] f6f2 | 
[V:3] A2D2F3E | 
[V:4] F8 | 
[V:5] d6A2 | 
[V:6] D,8 | 
[V:1] G3AB2F2 | 
[V:2] e4d4 | 
[V:3] CDEFG2DE | 
[V:4] z8 | 
[V:5] c4B4 | 
[V:6] z8 | 
[V:1] A3G/F/E4 | 
[V:2] c8 | 
[V:3] FGABcdec | 
[V:4] z8 | 
[V:5] A8 | 
[V:6] z8 | 
[V:1] D8 | 
[V:2] z8 | 
[V:3] d2G2B3c | 
[V:4] B8 | 
[V:5] z8 | 
[V:6] z4G,,4 | 
[V:1] z2D2F2G2 | 
[V:2] z8 | 
[V:3] d4z4 | 
[V:4] B4B4 | 
[V:5] z8 | 
[V:6] B,,3C,D,2E,2 | 
[V:1] A8 | 
[V:2] f8 | 
[V:3] z2D2F3G | 
[V:4] A6G2 | 
[V:5] z8 | 
[V:6] F,6E,2 | 
[V:1] z4D4 | 
[V:2] f4f4 | 
[V:3] A4z2F2 | 
[V:4] F8 | 
[V:5] z2F2A2B2 | 
[V:6] D,4D,4 | 
[V:1] E4G4 | 
[V:2] e6d2 | 
[V:3] G2CDEFGE | 
[V:4] z4G4 | 
[V:5] c8 | 
[V:6] C,4C,4 | 
[V:1] F3EF2G2- | 
[V:2] c8 | 
[V:3] FGABcde2- | 
[V:4] A6G2 | 
[V:5] z8 | 
[V:6] F,6E,2 | 
[V:1] GFGEF4 | 
[V:2] z4d4 | 
[V:3] edc4=B2 | 
[V:4] G4F4 | 
[V:5] z8 | 
[V:6] C,2E,2D,4 | 
[V:1] E2G3AB2- | 
[V:2] e6d2 | 
[V:3] (3c2G2c2(3B3cd2 | 
[V:4] G8 | 
[V:5] z2CDEFG2- | 
[V:6] C,D,E,F,G,2G,,2 | 
[V:1] BAF2G4 | 
[V:2] d4c4 | 
[V:3] (3G2B2A2(3G2E2C2 | 
[V:4] z4G4 | 
[V:5] GFD2E4 | 
[V:6] z8 | 
[V:1] F4z4 | 
[V:2] d8 | 
[V:3] (3F3GA2D2d2 | 
[V:4] A6G2 | 
[V:5] D3EF2G2 | 
[V:6] z2D,2D,2G,,2 | 
[V:1] z8 | 
[V:2] z4d4 | 
[V:3] e2c3=B=BA | 
[V:4] G4F4 | 
[V:5] C4z4 | 
[V:6] C,2E,2D,4 | 
[V:1] z8 | 
[V:2] e6d2 | 
[V:3] c3BGABc | 
[V:4] G8 | 
[V:5] z2CDEFGA | 
[V:6] C,D,E,F,G,2G,,2 | 
[V:1] z8 | 
[V:2] d4c4 | 
[V:3] dGg4^f2 | 
[V:4] z8 | 
[V:5] B2G2A4 | 
[V:6] z8 | 
[V:1] z2G3ABG | 
[V:2] d8 | 
[V:3] g4G4 | 
[V:4] z8 | 
[V:5] G4B4 | 
[V:6] z4z2G,2 | 
[V:1] A2B4AG | 
[V:2] z8 | 
[V:3] z4z2d2- | 
[V:4] z8 | 
[V:5] A2G2d4 | 
[V:6] F,2G,4F,E, | 
[V:1] F4z4 | 
[V:2] a8 | 
[V:3] defde2f2- | 
[V:4] z8 | 
[V:5] z2d2c2d2- | 
[V:6] D,4z2D,2- | 
[V:1] z8 | 
[V:2] a4a4 | 
[V:3] f2edc4 | 
[V:4] z8 | 
[V:5] d2cBA4 | 
[V:6] D,E,F,G,A,2F,2 | 
[V:1] z2D3EFG | 
[V:2] d4a4 | 
[V:3] z4z2d2- | 
[V:4] d8 | 
[V:5] B2G2A4 | 
[V:6] G,4D,4 | 
[V:1] A2D2z2A2 | 
[V:2] a4a4 | 
[V:3] defga2f2 | 
[V:4] d4d4 | 
[V:5] D8 | 
[V:6] z8 | 
[V:1] B2GABcd2- | 
[V:2] g4g4 | 
[V:3] g4G4 | 
[V:4] G4d4 | 
[V:5] z2G3ABc | 
[V:6] z4z2G,,2 | 
[V:1] d2D2F3G | 
[V:2] f8 | 
[V:3] z2d3ef2- | 
[V:4] d4d4 | 
[V:5] d2B2F4 | 
[V:6] B,,3C,D,3E, | 
[V:1] A2B3AAG | 
[V:2] z8 | 
[V:3] f2e2f4 | 
[V:4] c4c4 | 
[V:5] z4z2c2 | 
[V:6] F,2G,2F,4 | 
[V:1] B8 | 
[V:2] f8 | 
[V:3] z2d2d2B2- | 
[V:4] B8 | 
[V:5] d2B3cd2 | 
[V:6] z2B,2B,2B,2- | 
[V:1] z2d2d2d2- | 
[V:2] g8- | 
[V:3] Bcd2G2d2 | 
[V:4] z8 | 
[V:5] G4d2G2 | 
[V:6] B,A,G,F,G,2B,2- | 
[V:1] dcBAB4 | 
[V:2] g4g4 | 
[V:3] G2d3cde | 
[V:4] B8 | 
[V:5] d4z4 | 
[V:6] B,A,G,F,G,4 | 
[V:1] A8 | 
[V:2] a8 | 
[V:3] f2F2A3B | 
[V:4] c8- | 
[V:5] z4z2A2 | 
[V:6] F,8 | 
[V:1] z4A4 | 
[V:2] z8 | 
[V:3] c4F4 | 
[V:4] c4c4 | 
[V:5] A2F3GA2 | 
[V:6] z2A,2A,2F,2- | 
[V:1] A4A4 | 
[V:2] z4f4 | 
[V:3] f8 | 
[V:4] d8 | 
[V:5] D4A4 | 
[V:6] F,G,A,2D,4 | 
[V:1] B3cd2d2 | 
[V:2] g6f2 | 
[V:3] z8 | 
[V:4] z8 | 
[V:5] z8 | 
[V:6] z2G,3A,B,2 | 
[V:1] G8 | 
[V:2] e4d4 | 
[V:3] z4z2d2 | 
[V:4] z4B4 | 
[V:5] z8 | 
[V:6] C4G,4 | 
[V:1] z4G4 | 
[V:2] c8 | 
[V:3] e2cdefg2- | 
[V:4] c6B2 | 
[V:5] z2C3DE2 | 
[V:6] z8 | 
[V:1] c6B2 | 
[V:2] z8 | 
[V:3] g2f4e2 | 
[V:4] A4G4 | 
[V:5] F4C4 | 
[V:6] z4C,4 | 
[V:1] A3GF4 | 
[V:2] z8 | 
[V:3] f6e2 | 
[V:4] F8 | 
[V:5] F2DEFGA2- | 
[V:6] D,6C,2 | 
[V:1] z4A4 | 
[V:2] z8 | 
[V:3] d4c4 | 
[V:4] z8 | 
[V:5] AGG3^F^FE | 
[V:6] B,,4A,,4 | 
[V:1] B2G4FE | 
[V:2] z8 | 
[V:3] B4G2d2- | 
[V:4] G8 | 
[V:5] G8 | 
[V:6] G,,4z2G,,2 | 
[V:1] D4z2A2 | 
[V:2] z8 | 
[V:3] dcdBc4 | 
[V:4] F4F4 | 
[V:5] z8 | 
[V:6] B,,4A,,4 | 
[V:1] B6B2 | 
[V:2] d8 | 
[V:3] B4z2G2 | 
[V:4] G8 | 
[V:5] z4z2D2 | 
[V:6] G,,8 | 
[V:1] A4G4 | 
[V:2] c4c4 | 
[V:3] A2F2G4 | 
[V:4] z8 | 
[V:5] F4E4 | 
[V:6] z8 | 
[V:1] F2A3GFE | 
[V:2] d8 | 
[V:3] A4D4 | 
[V:4] z4A4 | 
[V:5] D8 | 
[V:6] z4F,4 | 
[V:1] D8 | 
[V:2] z8 | 
[V:3] z2d2d2d2 | 
[V:4] B6B2 | 
[V:5] z8 | 
[V:6] G,6D,2 | 
[V:1] z8 | 
[V:2] z4e4 | 
[V:3] cAc3BG2 | 
[V:4] A4G4 | 
[V:5] z4c4 | 
[V:6] F,4E,4 | 
[V:1] z4A4 | 
[V:2] f6f2 | 
[V:3] A2D2F3E | 
[V:4] F8 | 
[V:5] d6A2 | 
[V:6] D,8 | 
[V:1] G3AB2F2 | 
[V:2] e4d4 | 
[V:3] CDEFG2DE | 
[V:4] z8 | 
[V:5] c4B4 | 
[V:6] z8 | 
[V:1] A3GE4 | 
[V:2] c8 | 
[V:3] FGABcdec | 
[V:4] z8 | 
[V:5] A8 | 
[V:6] z8 | 
[V:1] D8 | 
[V:2] z8 | 
[V:3] d2G2B3c | 
[V:4] B8 | 
[V:5] z8 | 
[V:6] z4G,,4 | 
[V:1] z2D2F2G2 | 
[V:2] z8 | 
[V:3] d4z4 | 
[V:4] B4B4 | 
[V:5] z8 | 
[V:6] B,,3C,D,2E,2 | 
[V:1] A8 | 
[V:2] f8 | 
[V:3] z2D2F2G2 | 
[V:4] A6G2 | 
[V:5] z8 | 
[V:6] F,6E,2 | 
[V:1] z4D4 | 
[V:2] f4f4 | 
[V:3] A4z2F2 | 
[V:4] F8 | 
[V:5] z2F2A2B2 | 
[V:6] D,4D,4 | 
[V:1] E4G4 | 
[V:2] e6d2 | 
[V:3] G2CDEFGE | 
[V:4] z4G4 | 
[V:5] c8 | 
[V:6] C,4C,4 | 
[V:1] F3EF2G2- | 
[V:2] c8 | 
[V:3] FGABcde2- | 
[V:4] A6G2 | 
[V:5] z8 | 
[V:6] F,6E,2 | 
[V:1] GFGEF4 | 
[V:2] z4d4 | 
[V:3] edc4=B2 | 
[V:4] G4F4 | 
[V:5] z8 | 
[V:6] C,2E,2D,4 | 
[V:1] E2G3AB2- | 
[V:2] e6d2 | 
[V:3] (3c2G2c2(3B3cd2 | 
[V:4] G8 | 
[V:5] z2CDEFG2- | 
[V:6] C,D,E,F,G,2G,,2 | 
[V:1] BAF2G4 | 
[V:2] d4c4 | 
[V:3] (3G2B2A2(3G2E2C2 | 
[V:4] z4G4 | 
[V:5] GFD2E4 | 
[V:6] z8 | 
[V:1] F3EF2G2- | 
[V:2] d8 | 
[V:3] (3F3GA2D2d2 | 
[V:4] A6G2 | 
[V:5] D4z4 | 
[V:6] z2D,2D,2G,,2 | 
[V:1] GFGEF4 | 
[V:2] z4d4 | 
[V:3] e2c4=B2 | 
[V:4] G4F4 | 
[V:5] z8 | 
[V:6] C,2E,2D,4 | 
[V:1] E2G3AB2- | 
[V:2] e6d2 | 
[V:3] c3BGABc | 
[V:4] G4z4 | 
[V:5] CDEFG3A | 
[V:6] C,3D,E,F,G,2- | 
[V:1] BcdBc2A2- | 
[V:2] d4c4 | 
[V:3] d2G2z4 | 
[V:4] G4A4 | 
[V:5] B3AF3G | 
[V:6] G,2B,2A,G,F,E, | 
[V:1] AGG3^FFE | 
[V:2] d4z4 | 
[V:3] z8 | 
[V:4] F2G2A4 | 
[V:5] A2d2c2A2 | 
[V:6] D,2B,,2C,2D,2 | 
[V:1] G8- | 
[V:2] d4_e4 | 
[V:3] z2d2g3f | 
[V:4] G8- | 
[V:5] B3GG4 | 
[V:6] G,,2G,F,_E,D,C,2- | 
[V:1] G8- | 
[V:2] c2d2_e4 | 
[V:3] _e2d2c4 | 
[V:4] G8- | 
[V:5] z2G2_E3F | 
[V:6] C,2B,,2C,4 | 
[V:1] G8- | 
[V:2] d8- | 
[V:3] B8- | 
[V:4] G8- | 
[V:5] G4D4 | 
[V:6] G,,8- | 
[V:1] G8 |]  
[V:2] d8 |]  
[V:3] B8 |]  
[V:4] G8 |]  
[V:5] G8 |]  
[V:6] G,,8 |]  



